src/categories-icons-sprite/categories/svg-cat-women-clothes.svg

<svg width="34" height="30" viewBox="0 0 34 30" fill="none" xmlns="http://www.w3.org/2000/svg">
<path class="p-FD2D12" d="M21.6322 6.79162H11.8213V0H21.6322L21.6322 6.79162Z" fill="#A1D1FD"/>
<path class="p-DE0E0E" d="M21.6317 5.88657H16.7432V0H21.6317V5.88657Z" fill="#4D98CB"/>
<path class="p-FF672A" d="M26.0308 7.52651C25.5419 6.47952 24.4908 5.8103 23.3353 5.8103H23.3326H10.1206C8.96357 5.8103 7.91161 6.48102 7.4235 7.52997L0 21.9851L4.63611 24.2512L8.22378 18.3029L7.31873 29.9999H26.1344L25.2294 18.3029L28.8431 24.2713L33.4869 21.982L26.0308 7.52651Z" fill="#5FBEFF"/>
<path class="p-FD2D12" d="M26.0308 7.52651C25.5419 6.47952 24.4908 5.8103 23.3353 5.8103H23.3326H16.7266V29.9999H26.1344L25.2294 18.3029L28.8431 24.2713L33.4869 21.982L26.0308 7.52651Z" fill="#58ADE5"/>
<path class="p-FFFFFF" d="M25.2302 16.1725L22.8366 17.8294L19.7815 15.7146L16.727 17.8294L13.6723 15.7146L10.6178 17.8294L8.22461 16.1725V18.559L10.6178 20.2159L13.6723 18.1012L16.727 20.2159L19.7816 18.1011L22.8366 20.2158L25.2302 18.5589V16.1725Z" fill="white"/>
<path class="p-F2F2F4" d="M22.8355 17.8294L19.7804 15.7146L16.7432 17.8174V20.2039L19.7805 18.1011L22.8355 20.2158L25.2291 18.5589V16.1725L22.8355 17.8294Z" fill="#F2F2F4"/>
</svg>

<svg width="34" height="30" fill="none" xmlns="http://www.w3.org/2000/svg"><path class="p-FD2D12" d="M21.632 6.792h-9.81V0h9.81v6.792z" fill="#A1D1FD"/><path class="p-DE0E0E" d="M21.632 5.887h-4.889V0h4.889v5.887z" fill="#4D98CB"/><path class="p-FF672A" d="M26.03 7.527a2.975 2.975 0 00-2.695-1.717H10.121c-1.157 0-2.21.671-2.698 1.72L0 21.985l4.636 2.266 3.588-5.948L7.319 30h18.815l-.905-11.697 3.614 5.968 4.644-2.289L26.03 7.527z" fill="#5FBEFF"/><path class="p-FD2D12" d="M26.03 7.527a2.975 2.975 0 00-2.695-1.717h-6.608V30h9.407l-.905-11.697 3.614 5.968 4.644-2.289L26.03 7.527z" fill="#58ADE5"/><path class="p-FFFFFF" d="M25.23 16.172l-2.393 1.657-3.055-2.114-3.055 2.114-3.055-2.114-3.054 2.114-2.393-1.657v2.387l2.393 1.657 3.054-2.115 3.055 2.115 3.055-2.115 3.055 2.115 2.393-1.657v-2.387z" fill="#fff"/><path class="p-F2F2F4" d="M22.835 17.83l-3.055-2.115-3.037 2.102v2.387l3.038-2.103 3.055 2.115 2.393-1.657v-2.387l-2.393 1.657z" fill="#F2F2F4"/></svg>
